X: 7517
T: Cobbler's, The
R: polka
M: 2/4
K: Edorian
E>F|:GE BE|GE B>A|GE BE|F/E/D/F/ AB/A/|
GE BE|GA B>A|GA B/A/G/F/|1 E2 E>F:|2 E2 E>A||
|:Be ed|BA B>A|GE BE|F/E/D/F/ AG/A/|
Be ed|BA B>A|GA B/A/G/F/|1 E2E>A:|2 E2 E>F||

